src/icons/outline/symbols/international.svg

<svg width="24" height="24" viewBox="0 0 24 24" fill="none" xmlns="http://www.w3.org/2000/svg">
<g clip-path="url(#clip0_4547_391)">
<path d="M12 1C5.93039 1 1 5.93039 1 12C1 18.0696 5.93039 23 12 23C18.0696 23 23 18.0696 23 12C23 5.93039 18.0603 1 12 1ZM2.40068 12C2.40068 11.1596 2.52207 10.3565 2.7275 9.57216H7.06961C7.00424 10.3659 6.95756 11.1689 6.95756 12C6.95756 12.8311 7.00424 13.6341 7.06961 14.4185H2.71817C2.51273 13.6435 2.40068 12.8311 2.40068 12ZM8.35823 12C8.35823 11.1689 8.40492 10.3659 8.47029 9.57216H15.5297C15.5951 10.3565 15.6418 11.1689 15.6418 12C15.6418 12.8311 15.5951 13.6341 15.5297 14.4185H8.47963C8.41426 13.6248 8.36757 12.8217 8.36757 12H8.35823ZM16.9211 9.57216H21.2632C21.4686 10.3472 21.59 11.1596 21.59 12C21.59 12.8404 21.4686 13.6435 21.2725 14.4185H16.9304C16.9958 13.6248 17.0424 12.8217 17.0424 12C17.0424 11.1783 16.9958 10.3659 16.9304 9.57216H16.9211ZM20.7963 8.17148H16.781C16.5102 6.19185 16.0433 4.41766 15.4083 3.03565C17.8175 3.9601 19.7691 5.81834 20.7963 8.17148ZM13.5501 2.54075C14.3998 3.80136 15.0348 5.809 15.371 8.17148H8.62903C8.9652 5.809 9.59083 3.79202 10.4499 2.54075C10.9542 2.45671 11.4677 2.40068 12 2.40068C12.5323 2.40068 13.0458 2.45671 13.5501 2.54075ZM8.59168 3.03565C7.96604 4.41766 7.48981 6.19185 7.22835 8.17148H3.20374C4.2309 5.81834 6.18251 3.9601 8.59168 3.03565ZM3.20374 15.8192H7.21902C7.48981 17.7988 7.95671 19.573 8.59168 20.955C6.18251 20.0306 4.2309 18.1723 3.20374 15.8192ZM10.4593 21.4593C9.61885 20.2173 8.97453 18.191 8.63837 15.8192H15.3616C15.0255 18.191 14.3812 20.2173 13.5407 21.4593C13.0365 21.5433 12.5229 21.5993 12 21.5993C11.4771 21.5993 10.9635 21.5433 10.4593 21.4593ZM15.399 20.955C16.034 19.573 16.5008 17.7988 16.7716 15.8192H20.7869C19.7598 18.1723 17.8081 20.0306 15.399 20.955Z" fill="#3C3B44"/>
</g>
<defs>
<clipPath id="clip0_4547_391">
<rect width="24" height="24" fill="white"/>
</clipPath>
</defs>
</svg>

<svg xmlns="http://www.w3.org/2000/svg" width="24" height="24" fill="none" viewBox="0 0 24 24"><g clip-path="url(#a)"><path fill="currentColor" d="M12 1C5.93 1 1 5.93 1 12s4.93 11 11 11 11-4.93 11-11S18.06 1 12 1M2.4 12a9.5 9.5 0 0 1 .328-2.428H7.07A29 29 0 0 0 6.958 12c0 .831.046 1.634.112 2.419H2.718A9.4 9.4 0 0 1 2.401 12m5.958 0c0-.831.047-1.634.112-2.428h7.06c.065.785.112 1.597.112 2.428s-.047 1.634-.112 2.419H8.48A29 29 0 0 1 8.368 12zm8.563-2.428h4.342A9.4 9.4 0 0 1 21.591 12a9.8 9.8 0 0 1-.317 2.419H16.93c.066-.794.112-1.597.112-2.419s-.046-1.634-.112-2.428zm3.875-1.4h-4.015c-.27-1.98-.738-3.754-1.373-5.136a9.66 9.66 0 0 1 5.388 5.135M13.55 2.54c.85 1.26 1.485 3.268 1.821 5.63H8.629c.336-2.362.962-4.379 1.82-5.63A9.4 9.4 0 0 1 12 2.4a9.4 9.4 0 0 1 1.55.14m-4.958.495C7.966 4.418 7.49 6.192 7.228 8.17H3.204a9.66 9.66 0 0 1 5.388-5.135M3.204 15.819h4.015c.27 1.98.738 3.754 1.373 5.136a9.66 9.66 0 0 1-5.388-5.136m7.255 5.64c-.84-1.242-1.484-3.268-1.82-5.64h6.723c-.337 2.372-.98 4.398-1.821 5.64A9.4 9.4 0 0 1 12 21.6a9.4 9.4 0 0 1-1.54-.14m4.94-.504c.635-1.382 1.102-3.156 1.373-5.136h4.015a9.66 9.66 0 0 1-5.388 5.136"/></g><defs><clipPath id="a"><path fill="currentColor" d="M0 0h24v24H0z"/></clipPath></defs></svg>
